<?xml version="1.0" encoding="UTF-8"?>
<map version="1.10" tiledversion="1.11.2" orientation="orthogonal" renderorder="right-down" width="10" height="10" tilewidth="32" tileheight="32" infinite="0" nextlayerid="6" nextobjectid="1">
 <tileset firstgid="1" source="terrain/Terrain.tsx"/>
 <tileset firstgid="1025" name="TX Shadow Plant" tilewidth="32" tileheight="32" tilecount="256" columns="16">
  <image source="Pixel Art Top Down - Basic v1.2.2/Texture/TX Shadow Plant.png" width="512" height="512"/>
 </tileset>
 <tileset firstgid="1281" name="TX Plant" tilewidth="32" tileheight="32" tilecount="256" columns="16">
  <image source="Pixel Art Top Down - Basic v1.2.2/Texture/TX Plant.png" width="512" height="512"/>
 </tileset>
 <layer id="3" name="Water" width="10" height="10">
  <properties>
   <property name="isTraversable" type="bool" value="false"/>
  </properties>
  <data encoding="csv">
190,188,190,190,189,188,189,190,189,190,
188,190,190,190,189,189,190,190,189,189,
190,190,190,189,189,189,188,188,190,188,
190,189,189,189,190,190,188,190,188,189,
189,188,189,189,188,190,188,189,188,188,
190,190,188,189,189,189,189,188,190,188,
188,190,188,188,188,190,188,190,188,190,
190,188,188,190,188,188,189,190,190,190,
190,189,190,189,188,188,189,189,190,190,
188,188,190,190,188,190,190,190,190,188
</data>
 </layer>
 <layer id="2" name="Ground" width="10" height="10">
  <properties>
   <property name="isTraversable" type="bool" value="true"/>
  </properties>
  <data encoding="csv">
0,0,0,0,0,0,0,0,0,0,
0,0,0,0,0,0,0,0,0,0,
276,276,276,276,276,276,277,0,0,0,
371,308,373,308,371,308,244,277,0,0,
371,308,372,308,373,372,371,309,0,0,
340,340,340,340,213,373,371,309,0,0,
0,0,0,0,307,371,371,309,0,0,
0,0,0,0,339,340,340,341,0,0,
0,0,0,0,0,0,0,0,0,0,
0,0,0,0,0,0,0,0,0,0
</data>
 </layer>
 <layer id="5" name="tree shadow" width="10" height="10" opacity="0.5">
  <data encoding="csv">
0,0,0,0,0,0,0,0,0,0,
0,0,0,0,0,0,0,0,0,0,
0,0,0,0,0,0,0,0,0,0,
0,0,0,0,0,0,0,0,0,0,
0,0,0,0,0,1074,1075,1076,0,0,
0,0,0,0,0,1090,1091,1092,0,0,
0,0,0,0,0,0,0,0,0,0,
0,0,0,0,0,0,0,0,0,0,
0,0,0,0,0,0,0,0,0,0,
0,0,0,0,0,0,0,0,0,0
</data>
 </layer>
 <layer id="4" name="tree" width="10" height="10">
  <data encoding="csv">
0,0,0,0,1281,1282,1283,1284,1285,0,
0,0,0,0,1297,1298,1299,1300,1301,0,
0,0,0,0,1313,1314,1315,1316,1317,0,
0,0,0,0,1329,1330,1331,1332,1333,0,
0,0,0,0,1345,1346,1347,1348,1349,0,
0,0,0,0,0,0,0,0,0,0,
0,0,0,0,0,0,0,0,0,0,
0,0,0,0,0,0,0,0,0,0,
0,0,0,0,0,0,0,0,0,0,
0,0,0,0,0,0,0,0,0,0
</data>
 </layer>
</map>
